packages/blockchain-info-components/src/Images/img/send-crypto.svg

<svg fill="none" height="24" viewBox="0 0 24 24" width="24" xmlns="http://www.w3.org/2000/svg"><path clip-rule="evenodd" d="m3.23715 10.3215 3.06986 2.3621 4.99609-2.73504c.3009-.18647.6019.24864.3611.49724l-3.91254 3.4188v5.843c0 .5594.66213.8081 1.02329.4351l2.94945-3.2944 5.2971 4.0403c.3611.2487.8427.0622.9631-.3729l3.0096-16.78309c.0602-.49727-.3611-.87023-.7825-.68375l-16.85417 6.21595c-.42135.18648-.48155.80809-.12038 1.05669z" fill="#121d33" fill-rule="evenodd"/></svg>

<svg width="24" height="24" viewBox="0 0 24 24" fill="none" xmlns="http://www.w3.org/2000/svg">
<path fill-rule="evenodd" clip-rule="evenodd" d="M3.23715 10.3215L6.30701 12.6836L11.3031 9.94856C11.604 9.76209 11.905 10.1972 11.6642 10.4458L7.75166 13.8646V19.7076C7.75166 20.267 8.41379 20.5157 8.77495 20.1427L11.7244 16.8483L17.0215 20.8886C17.3826 21.1373 17.8642 20.9508 17.9846 20.5157L20.9942 3.73261C21.0544 3.23534 20.6331 2.86238 20.2117 3.04886L3.35753 9.26481C2.93618 9.45129 2.87598 10.0729 3.23715 10.3215Z" fill="#121D33"/>
</svg>
